X: 35596
T: Sabhal Iain 'Ic Uisdean
R: barndance
M: 4/4
K: Dmajor
M:4/4
K:Dmaj
"a7"(3ABc|:"Dd"d>B A>G "Ad"F<A A2|"F#d"f2 f>d "Gg"e>dB<d|"Dd"d>B A2 "F#d"F<A A2|"Aa7"B>AA<B "d"d2 "a7"d2:|
|:"Dd"d2 e<f "B bm"d2 d>f|"E em"e2 e>f "Aa7"e>dB<A|"Dd"d2 e<f "B bm"d2 d>B|"em"B>A"a7"A<B "d"d2 d2:|

